X:15
T:Growling Old Man and Woman
M:2/2
L:1/8
K:Am
A,B,|"Am"CA,EA, CA,EA,|"G"B,G,DG, B,G,DB,|"Am"CA,EA, CA,EA,|1"G"B,G,DG,
"Am"A,2 A,B,:|2"G"B,G,DG, "Am"A, ^cd||
K:AMaj|:
"A"efed cdef|"G"ged=c BG^cd|"A"efed cAcd|"(G)"e2 a^g a2 ef|
"(A)"=gfed cdef|"G"=ged=c BGBd|"Am"=c2 (3BcB) A=GED|1"Em"ED =C2 "Am"A,2
^cd:|2"Em"ED =C2 "Am" A,2||
